assets/contactUs/Contact 1.svg

<svg width="260" height="260" viewBox="0 0 260 260" fill="none" xmlns="http://www.w3.org/2000/svg">
<g clip-path="url(#clip0_207_535)">
<path d="M130 260C201.797 260 260 201.797 260 130C260 58.203 201.797 0 130 0C58.203 0 0 58.203 0 130C0 201.797 58.203 260 130 260Z" fill="url(#paint0_linear_207_535)"/>
<path fill-rule="evenodd" clip-rule="evenodd" d="M152.75 148.85H163.15C164.944 148.85 166.4 147.394 166.4 145.6C166.4 143.806 164.944 142.35 163.15 142.35H152.75C150.956 142.35 149.5 143.806 149.5 145.6C149.5 147.394 150.956 148.85 152.75 148.85Z" fill="white"/>
<path fill-rule="evenodd" clip-rule="evenodd" d="M152.75 129.35H189.15C190.944 129.35 192.4 127.894 192.4 126.1C192.4 124.306 190.944 122.85 189.15 122.85H152.75C150.956 122.85 149.5 124.306 149.5 126.1C149.5 127.894 150.956 129.35 152.75 129.35Z" fill="white"/>
<path fill-rule="evenodd" clip-rule="evenodd" d="M3.25 214.5H211.25C213.044 214.5 214.5 213.044 214.5 211.25C214.5 209.456 213.044 208 211.25 208H3.25C1.456 208 0 209.456 0 211.25C0 213.044 1.456 214.5 3.25 214.5Z" fill="url(#paint1_linear_207_535)"/>
<path fill-rule="evenodd" clip-rule="evenodd" d="M67.1586 208H3.25C1.456 208 0 209.456 0 211.25C0 213.044 1.456 214.5 3.25 214.5H67.1586C68.952 214.5 70.4086 213.044 70.4086 211.25C70.4086 209.456 68.952 208 67.1586 208Z" fill="white"/>
<path fill-rule="evenodd" clip-rule="evenodd" d="M130 178.1H139.75C141.545 178.1 143 179.555 143 181.35C143 184.864 143 189.439 143 194.136C143 198.498 145.898 202.329 150.095 203.517C154.292 204.705 158.768 202.96 161.054 199.245L173.114 179.647C173.706 178.686 174.754 178.1 175.882 178.1H204.75C210.135 178.1 214.5 173.735 214.5 168.35C214.5 153.13 214.5 115.32 214.5 100.1C214.5 94.7155 210.135 90.3501 204.75 90.3501C189.509 90.3501 152.75 90.3501 152.75 90.3501C150.956 90.3501 149.5 91.8061 149.5 93.6001C149.5 95.3941 150.956 96.8501 152.75 96.8501H204.75C206.545 96.8501 208 98.3054 208 100.1V168.35C208 170.145 206.545 171.6 204.75 171.6C196.477 171.6 182.471 171.6 175.882 171.6C172.496 171.6 169.353 173.356 167.578 176.24L155.518 195.839C154.756 197.077 153.264 197.659 151.865 197.263C150.466 196.866 149.5 195.59 149.5 194.136V181.35C149.5 175.965 145.135 171.6 139.75 171.6C135.225 171.6 130 171.6 130 171.6C128.206 171.6 126.75 173.056 126.75 174.85C126.75 176.644 128.206 178.1 130 178.1Z" fill="url(#paint2_linear_207_535)"/>
<path fill-rule="evenodd" clip-rule="evenodd" d="M50.05 158.386C50.05 158.386 49.2252 99.9642 48.8898 76.1878C48.8527 73.5781 49.8635 71.0626 51.6958 69.2049C53.5282 67.3465 56.0287 66.3 58.6385 66.3C78.5402 66.3 123.214 66.3 143 66.3C145.586 66.3 148.066 67.327 149.895 69.1555C151.723 70.9839 152.75 73.4643 152.75 76.05C152.75 99.738 152.75 158.386 152.75 158.386L128.164 162.26L123.385 185.686L117.145 186.336L97.5 159.834L50.05 158.386Z" fill="url(#paint3_linear_207_535)"/>
<path fill-rule="evenodd" clip-rule="evenodd" d="M156 154.05V72.8C156 70.2143 154.973 67.7339 153.145 65.9055C151.316 64.077 148.836 63.05 146.25 63.05H55.25C52.6643 63.05 50.1839 64.077 48.3554 65.9055C46.527 67.7339 45.5 70.2143 45.5 72.8V154.05C45.5 156.636 46.527 159.116 48.3554 160.945C50.1839 162.773 52.6643 163.8 55.25 163.8C66.3065 163.8 88.4215 163.8 97.1178 163.8C98.2462 163.8 99.294 164.386 99.8855 165.346C99.8855 165.347 111.946 184.945 111.946 184.945C114.232 188.66 118.708 190.405 122.905 189.217C127.102 188.029 130 184.198 130 179.836V167.05C130 165.255 131.455 163.8 133.25 163.8H146.25C151.635 163.8 156 159.435 156 154.05ZM149.5 154.05C149.5 155.845 148.045 157.3 146.25 157.3H133.25C127.865 157.3 123.5 161.665 123.5 167.05V179.836C123.5 181.29 122.534 182.566 121.135 182.963C119.736 183.359 118.244 182.777 117.482 181.539L105.422 161.94C103.647 159.056 100.504 157.3 97.1178 157.3C88.4215 157.3 66.3065 157.3 55.25 157.3C54.3881 157.3 53.5613 156.957 52.9516 156.348C52.3425 155.739 52 154.912 52 154.05V72.8C52 71.9381 52.3425 71.1113 52.9516 70.5016C53.5613 69.8926 54.3881 69.55 55.25 69.55H146.25C147.112 69.55 147.939 69.8926 148.548 70.5016C149.157 71.1113 149.5 71.9381 149.5 72.8V154.05Z" fill="url(#paint4_linear_207_535)"/>
<path fill-rule="evenodd" clip-rule="evenodd" d="M111.6 116.612C109.574 122.329 103.287 125.326 97.5696 123.299C91.8528 121.273 88.8563 114.986 90.8824 109.269C92.9091 103.551 99.1959 100.555 104.913 102.581C108.069 103.7 111.539 102.046 112.657 98.8903C113.776 95.7352 112.122 92.2648 108.967 91.1468C96.9384 86.8828 83.7116 93.1872 79.4482 105.215C75.1842 117.244 81.4886 130.471 93.5168 134.734C105.545 138.997 118.772 132.694 123.035 120.665C124.154 117.51 122.5 114.04 119.345 112.921C116.189 111.803 112.719 113.457 111.6 116.612Z" fill="url(#paint5_linear_207_535)"/>
</g>
<defs>
<linearGradient id="paint0_linear_207_535" x1="45.6958" y1="31.0708" x2="227.707" y2="215.716" gradientUnits="userSpaceOnUse">
<stop stop-color="#FF0CF5"/>
<stop offset="1" stop-color="#0575E6"/>
</linearGradient>
<linearGradient id="paint1_linear_207_535" x1="0" y1="211.25" x2="203.45" y2="211.25" gradientUnits="userSpaceOnUse">
<stop stop-color="#3AA0FE"/>
<stop offset="1" stop-color="#59FEF4"/>
</linearGradient>
<linearGradient id="paint2_linear_207_535" x1="94.25" y1="142.35" x2="211.25" y2="142.35" gradientUnits="userSpaceOnUse">
<stop stop-color="#3AA0FE"/>
<stop offset="1" stop-color="#59FEF4"/>
</linearGradient>
<linearGradient id="paint3_linear_207_535" x1="-117.004" y1="80.9608" x2="-117.004" y2="182.715" gradientUnits="userSpaceOnUse">
<stop stop-color="#36FF78" stop-opacity="0.8"/>
<stop offset="1" stop-color="#0CFFFF" stop-opacity="0.15"/>
</linearGradient>
<linearGradient id="paint4_linear_207_535" x1="58.5" y1="66.3" x2="149.5" y2="175.5" gradientUnits="userSpaceOnUse">
<stop stop-color="#36FF78"/>
<stop offset="1" stop-color="#0CFFFF"/>
</linearGradient>
<linearGradient id="paint5_linear_207_535" x1="94.2188" y1="97.4005" x2="113.707" y2="124.585" gradientUnits="userSpaceOnUse">
<stop stop-color="#FF0CF5"/>
<stop offset="1" stop-color="#0575E6"/>
</linearGradient>
<clipPath id="clip0_207_535">
<rect width="260" height="260" fill="white"/>
</clipPath>
</defs>
</svg>

<svg xmlns="http://www.w3.org/2000/svg" xmlns:xlink="http://www.w3.org/1999/xlink" width="260" height="260" fill="none" xmlns:v="https://vecta.io/nano"><g clip-path="url(#G)"><path d="M130 260c71.797 0 130-58.203 130-130S201.797 0 130 0 0 58.203 0 130s58.203 130 130 130z" fill="url(#A)"/><g fill-rule="evenodd"><g fill="#fff"><path d="M152.75 148.85h10.4a3.25 3.25 0 1 0 0-6.5h-10.4a3.25 3.25 0 1 0 0 6.5zm0-19.5h36.4a3.25 3.25 0 1 0 0-6.5h-36.4a3.25 3.25 0 1 0 0 6.5z"/></g><path d="M3.25 214.5h208a3.25 3.25 0 1 0 0-6.5h-208a3.25 3.25 0 1 0 0 6.5z" fill="url(#B)"/><path d="M67.159 208H3.25a3.25 3.25 0 1 0 0 6.5h63.909c1.793 0 3.25-1.456 3.25-3.25s-1.457-3.25-3.25-3.25z" fill="#fff"/><path d="M130 178.1h9.75a3.25 3.25 0 0 1 3.25 3.25v12.786a9.75 9.75 0 0 0 18.054 5.109l12.06-19.598a3.25 3.25 0 0 1 2.768-1.547h28.868a9.75 9.75 0 0 0 9.75-9.75V100.1a9.75 9.75 0 0 0-9.75-9.75h-52a3.25 3.25 0 1 0 0 6.5h52a3.25 3.25 0 0 1 3.25 3.25v68.25a3.25 3.25 0 0 1-3.25 3.25h-28.868a9.75 9.75 0 0 0-8.304 4.64l-12.06 19.599a3.25 3.25 0 0 1-6.018-1.703V181.35a9.75 9.75 0 0 0-9.75-9.75H130a3.25 3.25 0 1 0 0 6.5z" fill="url(#C)"/><path d="M50.05 158.386l-1.16-82.198c-.037-2.61.974-5.125 2.806-6.983a9.75 9.75 0 0 1 6.943-2.905H143a9.75 9.75 0 0 1 9.75 9.75v82.336l-24.586 3.874-4.779 23.426-6.24.65L97.5 159.834l-47.45-1.448z" fill="url(#D)"/><path d="M156 154.05V72.8a9.75 9.75 0 0 0-9.75-9.75h-91a9.75 9.75 0 0 0-9.75 9.75v81.25a9.75 9.75 0 0 0 9.75 9.75h41.868a3.25 3.25 0 0 1 2.768 1.546c0 .001 12.061 19.599 12.061 19.599A9.75 9.75 0 0 0 130 179.836V167.05a3.25 3.25 0 0 1 3.25-3.25h13a9.75 9.75 0 0 0 9.75-9.75zm-6.5 0a3.25 3.25 0 0 1-3.25 3.25h-13a9.75 9.75 0 0 0-9.75 9.75v12.786a3.25 3.25 0 0 1-6.018 1.703l-12.06-19.599a9.75 9.75 0 0 0-8.304-4.64H55.25c-.862 0-1.689-.343-2.298-.952A3.25 3.25 0 0 1 52 154.05V72.8c0-.862.343-1.689.952-2.298s1.437-.952 2.298-.952h91a3.25 3.25 0 0 1 2.298.952c.609.61.952 1.437.952 2.298v81.25z" fill="url(#E)"/><path d="M111.6 116.612c-2.026 5.717-8.313 8.714-14.03 6.687a11 11 0 0 1-6.687-14.03 11 11 0 0 1 14.031-6.688 6.07 6.07 0 0 0 7.744-3.691 6.07 6.07 0 0 0-3.69-7.743c-12.029-4.264-25.255 2.04-29.519 14.068s2.04 25.256 14.069 29.519 25.255-2.04 29.518-14.069a6.07 6.07 0 0 0-3.69-7.744c-3.156-1.118-6.626.536-7.745 3.691z" fill="url(#F)"/></g></g><defs><linearGradient id="A" x1="45.696" y1="31.071" x2="227.707" y2="215.716" xlink:href="#H"><stop stop-color="#ff0cf5"/><stop offset="1" stop-color="#0575e6"/></linearGradient><linearGradient id="B" x1="0" y1="211.25" x2="203.45" y2="211.25" xlink:href="#H"><stop stop-color="#3aa0fe"/><stop offset="1" stop-color="#59fef4"/></linearGradient><linearGradient id="C" x1="94.25" y1="142.35" x2="211.25" y2="142.35" xlink:href="#H"><stop stop-color="#3aa0fe"/><stop offset="1" stop-color="#59fef4"/></linearGradient><linearGradient id="D" x1="-117.004" y1="80.961" x2="-117.004" y2="182.715" xlink:href="#H"><stop stop-color="#36ff78" stop-opacity=".8"/><stop offset="1" stop-color="#0cffff" stop-opacity=".15"/></linearGradient><linearGradient id="E" x1="58.5" y1="66.3" x2="149.5" y2="175.5" xlink:href="#H"><stop stop-color="#36ff78"/><stop offset="1" stop-color="#0cffff"/></linearGradient><linearGradient id="F" x1="94.219" y1="97.401" x2="113.707" y2="124.585" xlink:href="#H"><stop stop-color="#ff0cf5"/><stop offset="1" stop-color="#0575e6"/></linearGradient><clipPath id="G"><path fill="#fff" d="M0 0h260v260H0z"/></clipPath><linearGradient id="H" gradientUnits="userSpaceOnUse"/></defs></svg>
